icons/desktop/12/svg/makeup-12.svg

<svg width="12" height="12" viewBox="0 0 12 12" fill="none" xmlns="http://www.w3.org/2000/svg">
<g clip-path="url(#clip0_8069_32496)">
<path fill-rule="evenodd" clip-rule="evenodd" d="M6 2.5C7.38071 2.5 8.5 3.61929 8.5 5C8.5 6.38071 7.38071 7.5 6 7.5C4.61929 7.5 3.5 6.38071 3.5 5C3.5 3.61929 4.61929 2.5 6 2.5ZM6 3.75C5.30964 3.75 4.75 4.30964 4.75 5C4.75 5.69036 5.30964 6.25 6 6.25C6.69036 6.25 7.25 5.69036 7.25 5C7.25 4.30964 6.69036 3.75 6 3.75Z" fill="black"/>
<path fill-rule="evenodd" clip-rule="evenodd" d="M6 0C8.76118 0 11 2.23882 11 5C11 6.1288 10.6233 7.16905 9.99219 8.00586C10.8347 8.06601 11.5 8.76727 11.5 9.625V9.74902C11.5 10.8682 10.6371 11.7892 9.52441 11.8711C8.42096 11.9521 7.24381 12 6 12C4.90779 12 3.73486 11.9622 2.48926 11.8721C1.382 11.7908 0.5 10.8797 0.5 9.75V9.625C0.5 8.7676 1.16483 8.06648 2.00684 8.00586C1.37606 7.1692 1 6.12885 1 5C1 2.23882 3.23882 0 6 0ZM2.125 9.25C1.91818 9.25 1.75 9.41818 1.75 9.625V9.75C1.75 10.2063 2.10734 10.5913 2.58008 10.626C3.79398 10.7138 4.9366 10.75 6 10.75C7.21205 10.75 8.35915 10.7039 9.43359 10.625C9.89669 10.5907 10.25 10.2097 10.25 9.74902V9.625C10.25 9.41818 10.0818 9.25 9.875 9.25H2.125ZM6 1.25C3.92918 1.25 2.25 2.92918 2.25 5C2.25 6.22608 2.8382 7.31512 3.75 8H8.24805C9.16065 7.31556 9.75 6.22653 9.75 5C9.75 2.92918 8.07082 1.25 6 1.25Z" fill="black"/>
</g>
<defs>
<clipPath id="clip0_8069_32496">
<rect width="12" height="12" fill="white"/>
</clipPath>
</defs>
</svg>

<!-- This Source Code Form is subject to the terms of the Mozilla Public
   - License, v. 2.0. If a copy of the MPL was not distributed with this
   - file, You can obtain one at http://mozilla.org/MPL/2.0/. -->
<svg xmlns="http://www.w3.org/2000/svg" width="12" height="12" fill="context-fill" fill-opacity="context-fill-opacity" viewBox="0 0 12 12">
    <g fill-rule="evenodd" clip-rule="evenodd">
        <path d="M6 2.5a2.5 2.5 0 1 1 0 5 2.5 2.5 0 0 1 0-5m0 1.25a1.25 1.25 0 1 0 0 2.5 1.25 1.25 0 0 0 0-2.5" />
        <path d="M6 0a5 5 0 0 1 5 5c0 1.129-.377 2.17-1.008 3.006.843.06 1.508.761 1.508 1.619v.124c0 1.12-.863 2.04-1.976 2.122a48 48 0 0 1-7.035.001A2.135 2.135 0 0 1 .5 9.75v-.125c0-.857.665-1.559 1.507-1.62A5 5 0 0 1 6 0M2.125 9.25a.375.375 0 0 0-.375.375v.125c0 .456.357.841.83.876a47.4 47.4 0 0 0 6.854-.001.877.877 0 0 0 .816-.876v-.124a.375.375 0 0 0-.375-.375zM6 1.25A3.75 3.75 0 0 0 3.75 8h4.498A3.75 3.75 0 0 0 6 1.25" />
    </g>
</svg>
